contributed-vectors/my_heroes.svg

<?xml version="1.0" encoding="UTF-8" standalone="no"?>
<svg
   xmlns:dc="http://purl.org/dc/elements/1.1/"
   xmlns:cc="http://creativecommons.org/ns#"
   xmlns:rdf="http://www.w3.org/1999/02/22-rdf-syntax-ns#"
   xmlns:svg="http://www.w3.org/2000/svg"
   xmlns="http://www.w3.org/2000/svg"
   xmlns:sodipodi="http://sodipodi.sourceforge.net/DTD/sodipodi-0.dtd"
   xmlns:inkscape="http://www.inkscape.org/namespaces/inkscape"
   viewBox="0 0 192 192"
   version="1.1"
   id="svg16"
   sodipodi:docname="myheroes.svg"
   inkscape:version="0.92.4 (5da689c313, 2019-01-14)">
  <metadata
     id="metadata20">
    <rdf:RDF>
      <cc:Work
         rdf:about="">
        <dc:format>image/svg+xml</dc:format>
        <dc:type
           rdf:resource="http://purl.org/dc/dcmitype/StillImage" />
        <dc:title />
      </cc:Work>
    </rdf:RDF>
  </metadata>
  <sodipodi:namedview
     pagecolor="#ffffff"
     bordercolor="#666666"
     borderopacity="1"
     objecttolerance="10"
     gridtolerance="10"
     guidetolerance="10"
     inkscape:pageopacity="0"
     inkscape:pageshadow="2"
     inkscape:window-width="1920"
     inkscape:window-height="1017"
     id="namedview18"
     showgrid="true"
     inkscape:zoom="4.9166667"
     inkscape:cx="31.329324"
     inkscape:cy="96.711867"
     inkscape:window-x="-8"
     inkscape:window-y="-8"
     inkscape:window-maximized="1"
     inkscape:current-layer="svg16"
     inkscape:snap-global="true">
    <inkscape:grid
       type="xygrid"
       id="grid827"
       spacingx="4"
       spacingy="4" />
  </sodipodi:namedview>
  <defs
     id="defs4">
    <style
       id="style2">.a{fill:none;stroke:#b1b5bd;stroke-linecap:round;stroke-linejoin:round;isolation:isolate;opacity:0.63;}</style>
  </defs>
  <path
     style="fill:#fcecdc;stroke:none;stroke-width:1px;stroke-linecap:butt;stroke-linejoin:miter;stroke-opacity:1"
     d="M 60 76 L 40 104 L 48 156 C 48 156 64 168 96 168 C 128 168 144 156 144 156 L 152 104 L 132 76 L 96 84 L 60 76 z "
     id="path831" />
  <path
     style="fill:#ffd6d4;stroke:none;stroke-width:1px;stroke-linecap:butt;stroke-linejoin:miter;stroke-opacity:1"
     d="M 60 84 L 44 92 L 48 144 C 48 144 48 104 60 100 C 84 120 96 120 96 120 C 96 120 108 120 132 100 C 144 104 144 144 144 144 L 148 92 L 132 84 L 96 92 L 60 84 z "
     id="path825" />
  <path
     style="fill:#ff837d;stroke:none;stroke-width:1px;stroke-linecap:butt;stroke-linejoin:miter;stroke-opacity:1"
     d="m 160.87354,68.13559 c 0,0 5.34894,1.149415 10.57627,-15.864406 C 179.9043,24.75363 146.83964,19.52542 146.83964,19.52542 c 0,0 9.42793,10.858417 4.47457,19.322034 -4.95335,8.463617 -14.84745,10.169492 -14.84745,10.169492 z"
     id="path855-9"
     inkscape:connector-curvature="0"
     sodipodi:nodetypes="csczcc" />
  <path
     style="fill:#f9de81;stroke:none;stroke-width:1px;stroke-linecap:butt;stroke-linejoin:miter;stroke-opacity:1"
     d="m 155.99218,77.491522 c 0,0 6.20581,-0.981057 7.32203,-4.067797 3.01105,-8.326587 -3.35918,-14.423827 -8.74576,-18.711865 -6.07557,-4.836519 -18.44373,-9.487293 -22.77966,-4.881355 -2.51328,2.669796 -0.81356,9.152542 -0.81356,9.152542 z"
     id="path853-6"
     inkscape:connector-curvature="0"
     sodipodi:nodetypes="cssscc" />
  <path
     style="fill:#ff837d;stroke:none;stroke-width:1px;stroke-linecap:butt;stroke-linejoin:miter;stroke-opacity:1"
     d="m 31.322034,68.135593 c 0,0 -5.348943,1.149415 -10.576271,-15.864406 -8.454496,-27.517554 24.610169,-32.745764 24.610169,-32.745764 0,0 -9.427933,10.858417 -4.474576,19.322034 4.953358,8.463617 14.847458,10.169492 14.847458,10.169492 z"
     id="path855"
     inkscape:connector-curvature="0"
     sodipodi:nodetypes="csczcc" />
  <path
     style="fill:#f9de81;stroke:none;stroke-width:1px;stroke-linecap:butt;stroke-linejoin:miter;stroke-opacity:1"
     d="m 36.20339,77.491525 c 0,0 -6.205811,-0.981057 -7.322034,-4.067797 -3.01105,-8.326587 3.359186,-14.423827 8.745763,-18.711865 6.075573,-4.836519 18.443734,-9.487293 22.779661,-4.881355 2.513285,2.669796 0.813559,9.152542 0.813559,9.152542 z"
     id="path853"
     inkscape:connector-curvature="0"
     sodipodi:nodetypes="cssscc" />
  <path
     style="fill:#ff837d;stroke:none;stroke-width:1px;stroke-linecap:butt;stroke-linejoin:miter;stroke-opacity:1"
     d="m 96,48 c -36,0 -46.27901,8.799746 -60,24 -13.72099,15.200254 -16,28 -16,56 0,8 5.821961,32.19058 21.550781,40.32617 9.2496,4.78428 31.025391,7.72852 31.025391,-8.27148 0,-12 -18.5625,-14.83985 -22.5625,-18.83985 C 46.013672,137.21484 48,92 60,88 c 0,0 20,24.13559 36,24.13559 16,0 36,-24.13559 36,-24.13559 12,4 13.98633,49.21484 9.98633,53.21484 -4,4 -22.5625,6.83985 -22.5625,18.83985 0,16 21.77579,13.05576 31.02539,8.27148 C 166.17804,160.19058 172,136 172,128 172,100 169.72099,87.200254 156,72 142.27901,56.799746 132,48 96,48 Z"
     id="path829"
     inkscape:connector-curvature="0"
     sodipodi:nodetypes="sssssscscssssss" />
  <path
     style="fill:#56595b;stroke:none;stroke-width:1px;stroke-linecap:butt;stroke-linejoin:miter;stroke-opacity:1"
     d="m 58.502245,103.11652 6.69741,8.74789 c 0,0 -2.913209,31.98667 8.135594,32.13559 8.240933,0.11107 6.711864,-23.79661 6.711864,-23.79661 l 4.295862,-0.0268 c 0,0 -2.965928,-2.56812 -10.804336,-7.90541 -9.638835,-6.56323 -15.036394,-9.15467 -15.036394,-9.15467 z"
     id="path875"
     inkscape:connector-curvature="0"
     sodipodi:nodetypes="ccsccsc" />
  <path
     style="fill:#56595b;stroke:none;stroke-width:1px;stroke-linecap:butt;stroke-linejoin:miter;stroke-opacity:1"
     d="m 133.67266,103.11652 -6.69741,8.74789 c 0,0 2.91321,31.98667 -8.1356,32.13559 -8.24093,0.11107 -6.71186,-23.79661 -6.71186,-23.79661 l -4.29586,-0.0268 c 0,0 2.96593,-2.56812 10.80433,-7.90541 9.63884,-6.56323 15.0364,-9.15467 15.0364,-9.15467 z"
     id="path875-3"
     inkscape:connector-curvature="0"
     sodipodi:nodetypes="ccsccsc" />
  <path
     style="opacity:1;vector-effect:none;fill:#f9de81;fill-opacity:1;fill-rule:evenodd;stroke:none;paint-order:stroke fill markers"
     d="M 96 48 C 89.990204 48 84.711859 48.251158 80 48.730469 L 80 106.16602 C 85.209504 109.59387 90.813664 112.13477 96 112.13477 C 101.18634 112.13477 106.7905 109.59387 112 106.16602 L 112 48.730469 C 107.28814 48.251158 102.0098 48 96 48 z "
     id="rect945" />
</svg>

<svg xmlns="http://www.w3.org/2000/svg" id="svg16" version="1.1" viewBox="0 0 192 192"><defs id="defs4"><style id="style2">.a{fill:none;stroke:#b1b5bd;stroke-linecap:round;stroke-linejoin:round;isolation:isolate;opacity:.63}</style></defs><path id="path831" d="m60 76-20 28 8 52s16 12 48 12 48-12 48-12l8-52-20-28-36 8-36-8z" style="fill:#fcecdc;stroke:none;stroke-width:1px;stroke-linecap:butt;stroke-linejoin:miter;stroke-opacity:1"/><path id="path825" d="m60 84-16 8 4 52s0-40 12-44c24 20 36 20 36 20s12 0 36-20c12 4 12 44 12 44l4-52-16-8-36 8-36-8z" style="fill:#ffd6d4;stroke:none;stroke-width:1px;stroke-linecap:butt;stroke-linejoin:miter;stroke-opacity:1"/><path id="path855-9" d="M160.874 68.136s5.348 1.149 10.576-15.865c8.454-27.517-24.61-32.746-24.61-32.746s9.428 10.859 4.474 19.322c-4.953 8.464-14.847 10.17-14.847 10.17z" style="fill:#ff837d;stroke:none;stroke-width:1px;stroke-linecap:butt;stroke-linejoin:miter;stroke-opacity:1"/><path id="path853-6" d="M155.992 77.492s6.206-.982 7.322-4.068c3.011-8.327-3.359-14.424-8.746-18.712-6.075-4.837-18.443-9.487-22.78-4.881-2.512 2.67-.813 9.152-.813 9.152z" style="fill:#f9de81;stroke:none;stroke-width:1px;stroke-linecap:butt;stroke-linejoin:miter;stroke-opacity:1"/><path id="path855" d="M31.322 68.136s-5.349 1.149-10.576-15.865c-8.455-27.517 24.61-32.746 24.61-32.746s-9.428 10.859-4.475 19.322c4.954 8.464 14.848 10.17 14.848 10.17z" style="fill:#ff837d;stroke:none;stroke-width:1px;stroke-linecap:butt;stroke-linejoin:miter;stroke-opacity:1"/><path id="path853" d="M36.203 77.492s-6.205-.982-7.322-4.068c-3.01-8.327 3.36-14.424 8.746-18.712 6.076-4.837 18.444-9.487 22.78-4.881 2.513 2.67.813 9.152.813 9.152z" style="fill:#f9de81;stroke:none;stroke-width:1px;stroke-linecap:butt;stroke-linejoin:miter;stroke-opacity:1"/><path id="path829" d="M96 48c-36 0-46.279 8.8-60 24-13.721 15.2-16 28-16 56 0 8 5.822 32.19 21.55 40.326 9.25 4.784 31.026 7.729 31.026-8.271 0-12-18.562-14.84-22.562-18.84S48 92 60 88c0 0 20 24.136 36 24.136S132 88 132 88c12 4 13.986 49.215 9.986 53.215s-22.562 6.84-22.562 18.84c0 16 21.776 13.055 31.025 8.271C166.178 160.191 172 136 172 128c0-28-2.279-40.8-16-56-13.721-15.2-24-24-60-24Z" style="fill:#ff837d;stroke:none;stroke-width:1px;stroke-linecap:butt;stroke-linejoin:miter;stroke-opacity:1"/><path id="path875" d="m58.502 103.117 6.698 8.747S62.286 143.851 73.335 144c8.241.111 6.712-23.797 6.712-23.797l4.296-.026s-2.966-2.569-10.804-7.906c-9.64-6.563-15.037-9.154-15.037-9.154z" style="fill:#56595b;stroke:none;stroke-width:1px;stroke-linecap:butt;stroke-linejoin:miter;stroke-opacity:1"/><path id="path875-3" d="m133.673 103.117-6.698 8.747s2.913 31.987-8.135 32.136c-8.241.111-6.712-23.797-6.712-23.797l-4.296-.026s2.966-2.569 10.804-7.906c9.64-6.563 15.037-9.154 15.037-9.154z" style="fill:#56595b;stroke:none;stroke-width:1px;stroke-linecap:butt;stroke-linejoin:miter;stroke-opacity:1"/><path id="rect945" d="M96 48c-6.01 0-11.288.251-16 .73v57.436c5.21 3.428 10.814 5.969 16 5.969s10.79-2.541 16-5.969V48.73c-4.712-.479-9.99-.73-16-.73z" style="opacity:1;vector-effect:none;fill:#f9de81;fill-opacity:1;fill-rule:evenodd;stroke:none;paint-order:stroke fill markers"/></svg>
